icon-themes/sifr_svg/cmd/sc_measureline.svg

<svg viewBox="0 0 16 16" xmlns="http://www.w3.org/2000/svg"><path d="m.984375-.01367188a1.0001 1.0001 0 0 0 -.984375 1.01367188v14a1.0001 1.0001 0 1 0 2 0v-10-4a1.0001 1.0001 0 0 0 -1.015625-1.01367188zm1.015625 5.01367188 4 3v-2h4v2l4-3-4-3v2h-4v-2zm12 0v10a1.0001 1.0001 0 1 0 2 0v-14a1.0001 1.0001 0 0 0 -1.015625-1.01367188 1.0001 1.0001 0 0 0 -.984375 1.01367188z" fill="#555753"/></svg>

<svg xmlns="http://www.w3.org/2000/svg" viewBox="0 0 16 16">
 <path
     style="fill:#555753"
     d="M 0.984375 -0.013671875 A 1.0001 1.0001 0 0 0 0 1 L 0 15 A 1.0001 1.0001 0 1 0 2 15 L 2 5 L 2 1 A 1.0001 1.0001 0 0 0 0.984375 -0.013671875 z M 2 5 L 6 8 L 6 6 L 10 6 L 10 8 L 14 5 L 10 2 L 10 4 L 6 4 L 6 2 L 2 5 z M 14 5 L 14 15 A 1.0001 1.0001 0 1 0 16 15 L 16 1 A 1.0001 1.0001 0 0 0 14.984375 -0.013671875 A 1.0001 1.0001 0 0 0 14 1 L 14 5 z "
     />
 </svg>
